src/assets/advantages/discount-icon.svg

<svg width="52" height="52" viewBox="0 0 52 52" fill="none" xmlns="http://www.w3.org/2000/svg">
<path d="M13.6076 14.7701V11.251H4.33163C3.31718 11.251 2.49414 12.0662 2.49414 13.0709V38.1121C2.49414 39.1168 3.31718 39.932 4.33163 39.932H47.4192C48.4337 39.932 49.2567 39.1168 49.2567 38.1121V13.0709C49.2567 12.0662 48.4337 11.251 47.4192 11.251H22.6945M22.6945 11.251L14.0191 20.4574H22.685L22.6945 11.251Z" stroke="#F2C247" stroke-linecap="round" stroke-linejoin="round"/>
<path d="M14.0293 24.3447V26.8387" stroke="#F2C247" stroke-linecap="round" stroke-linejoin="round"/>
<path d="M14.0293 30.5796V33.0736" stroke="#F2C247" stroke-linecap="round" stroke-linejoin="round"/>
<path d="M14.0293 37.1265V39.3087" stroke="#F2C247" stroke-linecap="round" stroke-linejoin="round"/>
<path d="M31.1749 23.4094C32.7245 23.4094 33.9807 22.1532 33.9807 20.6036C33.9807 19.054 32.7245 17.7979 31.1749 17.7979C29.6253 17.7979 28.3691 19.054 28.3691 20.6036C28.3691 22.1532 29.6253 23.4094 31.1749 23.4094Z" stroke="#F2C247" stroke-linecap="round" stroke-linejoin="round"/>
<path d="M40.839 33.3852C42.3885 33.3852 43.6447 32.1988 43.6447 30.7353C43.6447 29.2718 42.3885 28.0854 40.839 28.0854C39.2894 28.0854 38.0332 29.2718 38.0332 30.7353C38.0332 32.1988 39.2894 33.3852 40.839 33.3852Z" stroke="#F2C247" stroke-linecap="round" stroke-linejoin="round"/>
<path d="M41.4621 17.7979L30.5508 33.3854" stroke="#F2C247" stroke-linecap="round" stroke-linejoin="round"/>
</svg>

<svg xmlns="http://www.w3.org/2000/svg" width="52" height="52" fill="none" viewBox="0 0 52 52">
    <path stroke="#F2C247" stroke-linecap="round" stroke-linejoin="round" d="M13.608 14.77v-3.519H4.332a1.83 1.83 0 0 0-1.838 1.82v25.041a1.83 1.83 0 0 0 1.838 1.82h43.087a1.83 1.83 0 0 0 1.838-1.82V13.071a1.83 1.83 0 0 0-1.838-1.82H22.695m0 0-8.676 9.206h8.666l.01-9.206ZM14.03 24.345v2.494M14.03 30.58v2.494M14.03 37.127v2.182"/>
    <path stroke="#F2C247" stroke-linecap="round" stroke-linejoin="round" d="M31.175 23.41a2.806 2.806 0 1 0 0-5.612 2.806 2.806 0 0 0 0 5.611ZM40.839 33.385c1.55 0 2.806-1.186 2.806-2.65 0-1.463-1.257-2.65-2.806-2.65-1.55 0-2.806 1.187-2.806 2.65 0 1.464 1.256 2.65 2.806 2.65ZM41.462 17.798 30.551 33.385"/>
</svg>
